public/icons/purple-pencil.svg

<svg width="22" height="22" viewBox="0 0 22 22" fill="none" xmlns="http://www.w3.org/2000/svg">
<g clip-path="url(#clip0)">
<path d="M19.2656 2.73453L16.5311 0L13.3408 3.1903L15.6196 9.11509L19.2656 2.73453Z" fill="#161616"/>
<path d="M19.2652 2.73462L14.252 7.74791L18.8095 8.65941L21.9997 5.46915L19.2652 2.73462Z" fill="black"/>
<path d="M1.47022 17.4668L0 21.9999L4.8247 18.9982L1.47022 17.4668Z" fill="#7B65F3"/>
<path d="M0 22L4.53307 20.5299L3.91312 18.0869L0 22Z" fill="#3232A1"/>
<path d="M8.0937 15.729L2.62468 13.906L1.46973 17.467L3.00118 18.9985L8.0937 15.729Z" fill="#FFB244"/>
<path d="M3.00098 18.9986L4.53247 20.5301L8.09346 19.3752L7.18197 14.8176L3.00098 18.9986Z" fill="#EE780E"/>
<path d="M5.35938 16.6409L8.09385 19.3754L18.8095 8.65977L16.075 5.92529L8.93492 9.41933L5.35938 16.6409Z" fill="#3232A1"/>
<path d="M2.62402 13.9053L13.338 3.19131L16.0721 5.9254L5.35811 16.6394L2.62402 13.9053Z" fill="#7B65F3"/>
</g>
<defs>
<clipPath id="clip0">
<rect width="22" height="22" fill="white"/>
</clipPath>
</defs>
</svg>

<svg viewBox="0 0 22 22" fill="none" xmlns="http://www.w3.org/2000/svg"><g clip-path="url(#purple-pencil_svg__clip0)"><path d="M19.266 2.735L16.53 0l-3.19 3.19 2.279 5.925 3.646-6.38z" fill="#161616"/><path d="M19.265 2.735l-5.013 5.013 4.557.911L22 5.47l-2.734-2.734z" fill="#000"/><path d="M1.47 17.467L0 22l4.825-3.002-3.355-1.531z" fill="#7B65F3"/><path d="M0 22l4.533-1.47-.62-2.443L0 22z" fill="#3232A1"/><path d="M8.094 15.729l-5.47-1.823-1.154 3.561L3 18.999l5.093-3.27z" fill="#FFB244"/><path d="M3.001 18.999l1.531 1.531 3.561-1.155-.911-4.557-4.181 4.18z" fill="#EE780E"/><path d="M5.36 16.64l2.734 2.735L18.81 8.66l-2.735-2.735-7.14 3.494-3.576 7.222z" fill="#3232A1"/><path d="M2.624 13.905L13.338 3.191l2.734 2.734L5.358 16.64l-2.734-2.734z" fill="#7B65F3"/></g><defs><clipPath id="purple-pencil_svg__clip0"><path fill="#fff" d="M0 0h22v22H0z"/></clipPath></defs></svg>
